svg/u1f6bf.svg

<svg viewBox="0 0 128 128" xmlns="http://www.w3.org/2000/svg">
  <g>
    <path d="M100.87,15.07L87.94,27.95l10.11,10.11l13.03-13.04c3.64-3.64,7.98-6.12,12.92-7.22V4.67 C115.22,5.14,107.12,8.83,100.87,15.07z" fill="#BDBDBD"/>
    <path d="M96.59,30.45c-14.37-14.37-37.92-14.13-52.07-0.18l52.25,52.25 C110.72,68.37,110.96,44.82,96.59,30.45z" fill="#BDBDBD"/>
    <path d="M107.74,28.62c-0.21-0.79-1.84-3.67-4.07-5.83s-4.75-3.72-6.94-4.17c-4.35-0.9-6.82,2.28-9.57,5.03 c3.41,1.7,6.6,3.96,9.43,6.8c2.45,2.45,4.47,5.18,6.08,8.08c-0.13-0.23,4.03-4.03,4.03-4.03C108.18,33,108.3,30.7,107.74,28.62z" fill="#78909C"/>
    <path d="M96.59,30.45c-14.37-14.37-37.92-14.13-52.07-0.18l52.25,52.25 C110.72,68.37,110.96,44.82,96.59,30.45z" fill="#BDBDBD"/>
    <path d="M83.74,41.83C67.75,27.39,53.9,23.61,53.9,23.61c-1.07,0.44-1.97,0.86-2.78,1.31 c0,0,11.13,4.66,28.22,20.36s24,28.51,24,28.51c0.53-1.08,0.99-2.28,1.45-3.7C104.78,70.09,102.69,58.95,83.74,41.83z" fill="#9E9E9E"/>
    <path d="M81.17,44.73c17.59,16.13,28.11,32.83,24.01,37.75c-2.9,3.48-6.52,3.2-6.52,3.2 c-7.77-1.84-20.51-12.25-33.16-23.85c-12.87-11.8-26.09-27.08-26.71-29.7c0,0-0.79-2.69-0.09-4.63c0.88-2.43,2.79-3.42,2.79-3.42 C48.23,20.4,63.58,28.6,81.17,44.73z" fill="#BDBDBD"/>
    <ellipse cx="69.27" cy="57.34" rx="7.05" ry="41.25" fill="#757575" transform="matrix(0.6758 -0.737 0.737 0.6758 -19.8051 69.6417)"/>
    <path d="M68.13,22.25c-0.97,0.39-1.85,1.25-1.9,2.29c-0.06,1.29,1.98,2.63,4.39,2.21 c3.91-0.69,7.16-0.55,8.21-0.37c0.56,0.1,2.62,0.1,2.62-1.19c0-1.32-2.05-2.19-2.58-2.4C75.87,21.6,71.35,20.97,68.13,22.25z" fill="#DFECF5"/>
    <path d="M48.94,26.56c-0.34,1.54,2.71,2.53,3.39,2.73c1.41,0.43,5.26,1.84,5.9,1.32 c0.45-0.37,0.53-1.44-3.52-3.7C51.5,25.11,49.27,25.1,48.94,26.56z" fill="#DFECF5"/>
    <radialGradient id="SVGID_1_" cx="79.2756" cy="48.0978" gradientTransform="matrix(-0.7157 0.6984 -0.1115 -0.1142 141.3735 -1.7761)" gradientUnits="userSpaceOnUse" r="123.2251">
      <stop offset="0" stop-color="#4FC3F7"/>
      <stop offset="0.8296" stop-color="#4FC3F7" stop-opacity="0"/>
    </radialGradient>
    <path d="M6.71,120.14c-2.09-2.09-1.68-7.4,0.66-9.49l58.66-52.79c1.05-1.03,2.73-1.03,3.79,0v0 c1.07,1.04,1.08,2.76,0.04,3.82l-54.26,57.4C13.13,121.68,8.8,122.24,6.71,120.14z" fill="url(#SVGID_1_)"/>
    <linearGradient id="SVGID_2_" gradientUnits="userSpaceOnUse" x1="69.9271" x2="22.5172" y1="58.0468" y2="111.4511">
      <stop offset="0" stop-color="#4FC3F7"/>
      <stop offset="0.8296" stop-color="#4FC3F7" stop-opacity="0"/>
    </linearGradient>
    <path d="M70.27,58.5c-31.63,27.37-54.62,58.91-55.28,61.14c0,0,0.56-0.52,0.59-0.56l54.26-57.4 C70.7,60.81,70.83,59.52,70.27,58.5z" fill="url(#SVGID_2_)"/>
    <radialGradient id="SVGID_3_" cx="61.2629" cy="35.4468" gradientTransform="matrix(-0.7902 0.6129 -0.0978 -0.1261 118.0854 7.1664)" gradientUnits="userSpaceOnUse" r="94.4117">
      <stop offset="0" stop-color="#4FC3F7"/>
      <stop offset="0.8296" stop-color="#4FC3F7" stop-opacity="0"/>
    </radialGradient>
    <path d="M9.41,77.98l44.76-31.47c1.17-0.9,2.84-0.7,3.76,0.45l0,0c0.93,1.16,0.74,2.86-0.42,3.8 l-44.51,37c-2.9,2.41-6.26,3.28-8.4-0.51C2.41,83.4,6.81,79.81,9.41,77.98z" fill="url(#SVGID_3_)"/>
    <linearGradient id="SVGID_4_" gradientTransform="matrix(0.9928 0.1197 -0.1197 0.9928 9.629 -2.283)" gradientUnits="userSpaceOnUse" x1="53.3242" x2="14.231" y1="44.8222" y2="87.3768">
      <stop offset="0" stop-color="#4FC3F7"/>
      <stop offset="0.8296" stop-color="#4FC3F7" stop-opacity="0"/>
    </linearGradient>
    <path d="M58.31,47.65c-0.19-0.04-34.81,23.68-46.16,40.8l45.35-37.69 C58.46,50,58.74,48.73,58.31,47.65z" fill="url(#SVGID_4_)"/>
    <radialGradient id="SVGID_5_" cx="43.9531" cy="24.9959" gradientTransform="matrix(-0.8551 0.5185 -0.0827 -0.1365 93.4784 13.1568)" gradientUnits="userSpaceOnUse" r="70.0725">
      <stop offset="0" stop-color="#4FC3F7"/>
      <stop offset="0.8296" stop-color="#4FC3F7" stop-opacity="0"/>
    </radialGradient>
    <path d="M5.09,62.38C3.09,58,7.7,55.9,7.7,55.9l35.55-19.75c1.25-0.77,2.9-0.4,3.69,0.85l0,0 c0.8,1.26,0.44,2.93-0.82,3.73L12.1,63.39C12.1,63.39,7.26,67.14,5.09,62.38z" fill="url(#SVGID_5_)"/>
    <linearGradient id="SVGID_6_" gradientTransform="matrix(0.9746 0.2238 -0.2238 0.9746 16.5805 -1.6624)" gradientUnits="userSpaceOnUse" x1="38.337" x2="9.8219" y1="32.6289" y2="63.6688">
      <stop offset="0" stop-color="#4FC3F7"/>
      <stop offset="0.8296" stop-color="#4FC3F7" stop-opacity="0"/>
    </linearGradient>
    <path d="M47.25,37.72c-0.19-0.06-18.51,9.7-36.37,26.41l35.23-23.4 C47.14,40.07,47.56,38.83,47.25,37.72z" fill="url(#SVGID_6_)"/>
    <radialGradient id="SVGID_7_" cx="100.7062" cy="64.3922" gradientTransform="matrix(-0.6174 0.7867 0.1255 0.0985 141.6124 -26.248)" gradientUnits="userSpaceOnUse" r="97.1189">
      <stop offset="0" stop-color="#4FC3F7"/>
      <stop offset="0.8296" stop-color="#4FC3F7" stop-opacity="0"/>
    </radialGradient>
    <path d="M48.38,117.92l32.7-46.36c0.9-1.17,0.69-2.9-0.45-3.76c-1.19-0.9-2.86-0.74-3.8,0.42 L38.6,114.34c-2.41,2.9-3.28,6.26,0.51,8.4C42.96,124.92,46.55,120.52,48.38,117.92z" fill="url(#SVGID_7_)"/>
    <linearGradient id="SVGID_8_" gradientTransform="matrix(0.9986 -0.0537 0.0537 0.9986 -17.2672 -0.2494)" gradientUnits="userSpaceOnUse" x1="95.9055" x2="56.5996" y1="76.972" y2="119.758">
      <stop offset="0" stop-color="#4FC3F7"/>
      <stop offset="0.8296" stop-color="#4FC3F7" stop-opacity="0"/>
    </linearGradient>
    <path d="M81.11,68.3c-0.5,0.51-26.25,33.02-34.47,51.84l34.38-48.5 C81.82,70.66,81.86,69.13,81.11,68.3z" fill="url(#SVGID_8_)"/>
    <radialGradient id="SVGID_9_" cx="87.278" cy="48.6661" gradientTransform="matrix(-0.5065 0.8622 0.1376 0.0808 133.433 -8.7226)" gradientUnits="userSpaceOnUse" r="73.408">
      <stop offset="0" stop-color="#4FC3F7"/>
      <stop offset="0.8296" stop-color="#4FC3F7" stop-opacity="0"/>
    </radialGradient>
    <path d="M64.89,122.83c4.37,2,6.48-2.61,6.48-2.61L92.3,81.38c0.77-1.25-0.09-3-0.85-3.69 c-0.82-0.75-2.93-0.44-3.73,0.82l-23.85,37.31C63.88,115.82,60.13,120.66,64.89,122.83z" fill="url(#SVGID_9_)"/>
    <linearGradient id="SVGID_10_" gradientTransform="matrix(0.96 -0.2801 0.2801 0.96 -5.7529 45.6511)" gradientUnits="userSpaceOnUse" x1="84.0476" x2="53.9237" y1="59.372" y2="92.1631">
      <stop offset="0" stop-color="#4FC3F7"/>
      <stop offset="0.8296" stop-color="#4FC3F7" stop-opacity="0"/>
    </linearGradient>
    <path d="M91.71,77.92c-0.19,0.04-13.16,19.47-20.59,42.77l20.83-38.64 C93.08,80.54,92.52,78.74,91.71,77.92z" fill="url(#SVGID_10_)"/>
  </g>
</svg>

<svg viewBox="0 0 128 128" xmlns="http://www.w3.org/2000/svg">
  <defs>
    <radialGradient id="SVGID_1_" cx="-23.12054" cy="-562.562133" gradientTransform="matrix(-0.7157 0.6984 -0.1115 -0.1142 0 0)" gradientUnits="userSpaceOnUse" r="123.2251">
      <stop offset="0" stop-color="#4FC3F7"/>
      <stop offset="0.8296" stop-color="#4FC3F7" stop-opacity="0"/>
    </radialGradient>
    <linearGradient id="SVGID_2_" gradientUnits="userSpaceOnUse" x1="69.9271" x2="22.5172" y1="58.0468" y2="111.4511">
      <stop offset="0" stop-color="#4FC3F7"/>
      <stop offset="0.8296" stop-color="#4FC3F7" stop-opacity="0"/>
    </linearGradient>
    <radialGradient id="SVGID_3_" cx="-27.652852" cy="-453.552919" gradientTransform="matrix(-0.7902 0.6129 -0.0978 -0.1261 0 0)" gradientUnits="userSpaceOnUse" r="94.4117">
      <stop offset="0" stop-color="#4FC3F7"/>
      <stop offset="0.8296" stop-color="#4FC3F7" stop-opacity="0"/>
    </radialGradient>
    <linearGradient id="SVGID_4_" gradientTransform="matrix(0.9928 0.1197 -0.1197 0.9928 0 0)" gradientUnits="userSpaceOnUse" x1="62.610782" x2="23.517582" y1="41.402978" y2="83.957578">
      <stop offset="0" stop-color="#4FC3F7"/>
      <stop offset="0.8296" stop-color="#4FC3F7" stop-opacity="0"/>
    </linearGradient>
    <radialGradient id="SVGID_5_" cx="-29.177563" cy="-349.180281" gradientTransform="matrix(-0.8551 0.5185 -0.0827 -0.1365 0 0)" gradientUnits="userSpaceOnUse" r="70.0725">
      <stop offset="0" stop-color="#4FC3F7"/>
      <stop offset="0.8296" stop-color="#4FC3F7" stop-opacity="0"/>
    </radialGradient>
    <linearGradient id="SVGID_6_" gradientTransform="matrix(0.9746 0.2238 -0.2238 0.9746 0 0)" gradientUnits="userSpaceOnUse" x1="54.12539" x2="25.61029" y1="27.297644" y2="58.337544">
      <stop offset="0" stop-color="#4FC3F7"/>
      <stop offset="0.8296" stop-color="#4FC3F7" stop-opacity="0"/>
    </linearGradient>
    <radialGradient id="SVGID_7_" cx="-7.369719" cy="661.096008" gradientTransform="matrix(-0.6174 0.7867 0.1255 0.0985 0 0)" gradientUnits="userSpaceOnUse" r="97.1189">
      <stop offset="0" stop-color="#4FC3F7"/>
      <stop offset="0.8296" stop-color="#4FC3F7" stop-opacity="0"/>
    </radialGradient>
    <linearGradient id="SVGID_8_" gradientTransform="matrix(0.9986 -0.0537 0.0537 0.9986 0 0)" gradientUnits="userSpaceOnUse" x1="78.677342" x2="39.371442" y1="75.795801" y2="118.581801">
      <stop offset="0" stop-color="#4FC3F7"/>
      <stop offset="0.8296" stop-color="#4FC3F7" stop-opacity="0"/>
    </linearGradient>
    <radialGradient id="SVGID_9_" cx="12.188242" cy="741.980326" gradientTransform="matrix(-0.5065 0.8622 0.1376 0.0808 0 0)" gradientUnits="userSpaceOnUse" r="73.408">
      <stop offset="0" stop-color="#4FC3F7"/>
      <stop offset="0.8296" stop-color="#4FC3F7" stop-opacity="0"/>
    </radialGradient>
    <linearGradient id="SVGID_10_" gradientTransform="matrix(0.96 -0.2801 0.2801 0.96 0 0)" gradientUnits="userSpaceOnUse" x1="65.738968" x2="35.615068" y1="101.583304" y2="134.374404">
      <stop offset="0" stop-color="#4FC3F7"/>
      <stop offset="0.8296" stop-color="#4FC3F7" stop-opacity="0"/>
    </linearGradient>
  </defs>
  <path d="M100.87,15.07 L87.94,27.95 L98.05,38.06 L111.08,25.02 C114.72,21.38 119.06,18.9 124,17.8 L124,4.67 C115.22,5.14 107.12,8.83 100.87,15.07 Z" fill="#BDBDBD"/>
  <path d="M96.59,30.45 C82.22,16.08 58.67,16.32 44.52,30.27 L96.77,82.52 C110.72,68.37 110.96,44.82 96.59,30.45 Z" fill="#BDBDBD"/>
  <path d="M107.74,28.62 C107.53,27.83 105.9,24.95 103.67,22.79 C101.44,20.63 98.92,19.07 96.73,18.62 C92.38,17.72 89.91,20.9 87.16,23.65 C90.57,25.35 93.76,27.61 96.59,30.45 C99.04,32.9 101.06,35.63 102.67,38.53 C102.54,38.3 106.7,34.5 106.7,34.5 C108.18,33 108.3,30.7 107.74,28.62 Z" fill="#78909C"/>
  <path d="M96.59,30.45 C82.22,16.08 58.67,16.32 44.52,30.27 L96.77,82.52 C110.72,68.37 110.96,44.82 96.59,30.45 Z" fill="#BDBDBD"/>
  <path d="M83.74,41.83 C67.75,27.39 53.9,23.61 53.9,23.61 C52.83,24.05 51.93,24.47 51.12,24.92 C51.12,24.92 62.25,29.58 79.34,45.28 C96.43,60.98 103.34,73.79 103.34,73.79 C103.87,72.71 104.33,71.51 104.79,70.09 C104.78,70.09 102.69,58.95 83.74,41.83 Z" fill="#9E9E9E"/>
  <path d="M81.17,44.73 C98.76,60.86 109.28,77.56 105.18,82.48 C102.28,85.96 98.66,85.68 98.66,85.68 C90.89,83.84 78.15,73.43 65.5,61.83 C52.63,50.03 39.41,34.75 38.79,32.13 C38.79,32.13 38,29.44 38.7,27.5 C39.58,25.07 41.49,24.08 41.49,24.08 C48.23,20.4 63.58,28.6 81.17,44.73 Z" fill="#BDBDBD"/>
  <path d="M74.032,52.144 C90.822,67.54 102.3,82.347 99.668,85.217 C97.037,88.086 81.293,77.932 64.503,62.536 C47.713,47.14 36.235,32.333 38.866,29.463 C41.497,26.594 57.241,36.748 74.032,52.144 Z" fill="#757575"/>
  <path d="M68.13,22.25 C67.16,22.64 66.28,23.5 66.23,24.54 C66.17,25.83 68.21,27.17 70.62,26.75 C74.53,26.06 77.78,26.2 78.83,26.38 C79.39,26.48 81.45,26.48 81.45,25.19 C81.45,23.87 79.4,23 78.87,22.79 C75.87,21.6 71.35,20.97 68.13,22.25 Z" fill="#DFECF5"/>
  <path d="M48.94,26.56 C48.6,28.1 51.65,29.09 52.33,29.29 C53.74,29.72 57.59,31.13 58.23,30.61 C58.68,30.24 58.76,29.17 54.71,26.91 C51.5,25.11 49.27,25.1 48.94,26.56 Z" fill="#DFECF5"/>
  <path d="M6.71,120.14 C4.62,118.05 5.03,112.74 7.37,110.65 L66.03,57.86 C67.08,56.83 68.76,56.83 69.82,57.86 L69.82,57.86 C70.89,58.9 70.9,60.62 69.86,61.68 L15.6,119.08 C13.13,121.68 8.8,122.24 6.71,120.14 Z" fill="url(#SVGID_1_)"/>
  <path d="M70.27,58.5 C38.64,85.87 15.65,117.41 14.99,119.64 C14.99,119.64 15.55,119.12 15.58,119.08 L69.84,61.68 C70.7,60.81 70.83,59.52 70.27,58.5 Z" fill="url(#SVGID_2_)"/>
  <path d="M9.41,77.98 L54.17,46.51 C55.34,45.61 57.01,45.81 57.93,46.96 L57.93,46.96 C58.86,48.12 58.67,49.82 57.51,50.76 L13,87.76 C10.1,90.17 6.74,91.04 4.6,87.25 C2.41,83.4 6.81,79.81 9.41,77.98 Z" fill="url(#SVGID_3_)"/>
  <path d="M58.31,47.65 C58.12,47.61 23.5,71.33 12.15,88.45 L57.5,50.76 C58.46,50 58.74,48.73 58.31,47.65 Z" fill="url(#SVGID_4_)"/>
  <path d="M5.09,62.38 C3.09,58 7.7,55.9 7.7,55.9 L43.25,36.15 C44.5,35.38 46.15,35.75 46.94,37 L46.94,37 C47.74,38.26 47.38,39.93 46.12,40.73 L12.1,63.39 C12.1,63.39 7.26,67.14 5.09,62.38 Z" fill="url(#SVGID_5_)"/>
  <path d="M47.25,37.72 C47.06,37.66 28.74,47.42 10.88,64.13 L46.11,40.73 C47.14,40.07 47.56,38.83 47.25,37.72 Z" fill="url(#SVGID_6_)"/>
  <path d="M48.38,117.92 L81.08,71.56 C81.98,70.39 81.77,68.66 80.63,67.8 C79.44,66.9 77.77,67.06 76.83,68.22 L38.6,114.34 C36.19,117.24 35.32,120.6 39.11,122.74 C42.96,124.92 46.55,120.52 48.38,117.92 Z" fill="url(#SVGID_7_)"/>
  <path d="M81.11,68.3 C80.61,68.81 54.86,101.32 46.64,120.14 L81.02,71.64 C81.82,70.66 81.86,69.13 81.11,68.3 Z" fill="url(#SVGID_8_)"/>
  <path d="M64.89,122.83 C69.26,124.83 71.37,120.22 71.37,120.22 L92.3,81.38 C93.07,80.13 92.21,78.38 91.45,77.69 C90.63,76.94 88.52,77.25 87.72,78.51 L63.87,115.82 C63.88,115.82 60.13,120.66 64.89,122.83 Z" fill="url(#SVGID_9_)"/>
  <path d="M91.71,77.92 C91.52,77.96 78.55,97.39 71.12,120.69 L91.95,82.05 C93.08,80.54 92.52,78.74 91.71,77.92 Z" fill="url(#SVGID_10_)"/>
</svg>
